<?xml version="1.0" encoding="UTF-8"?>
<map version="1.10" tiledversion="1.12.2" orientation="orthogonal" renderorder="right-down" width="15" height="10" tilewidth="16" tileheight="16" infinite="0" nextlayerid="2" nextobjectid="1">
 <tileset firstgid="1" name="50005152" tilewidth="16" tileheight="16" tilecount="1024" columns="32">
  <image source="50005152.png" trans="ffffff" width="512" height="512"/>
 </tileset>
 <layer id="1" name="Tile Layer 1" width="15" height="10">
  <properties>
   <property name="Main" value=""/>
  </properties>
  <data>
   <tile gid="424"/>
   <tile gid="584"/>
   <tile gid="781"/>
   <tile gid="784"/>
   <tile gid="131"/>
   <tile gid="100"/>
   <tile gid="131"/>
   <tile gid="100"/>
   <tile gid="100"/>
   <tile gid="7"/>
   <tile gid="7"/>
   <tile gid="7"/>
   <tile gid="7"/>
   <tile gid="7"/>
   <tile gid="7"/>
   <tile gid="748"/>
   <tile gid="593"/>
   <tile gid="686"/>
   <tile gid="131"/>
   <tile gid="7"/>
   <tile gid="7"/>
   <tile gid="100"/>
   <tile gid="7"/>
   <tile gid="7"/>
   <tile gid="7"/>
   <tile gid="7"/>
   <tile gid="7"/>
   <tile gid="7"/>
   <tile gid="7"/>
   <tile gid="7"/>
   <tile gid="653"/>
   <tile gid="654"/>
   <tile gid="655"/>
   <tile gid="7"/>
   <tile gid="7"/>
   <tile gid="7"/>
   <tile gid="7"/>
   <tile gid="7"/>
   <tile gid="7"/>
   <tile gid="7"/>
   <tile gid="7"/>
   <tile gid="7"/>
   <tile gid="7"/>
   <tile gid="7"/>
   <tile gid="7"/>
   <tile gid="686"/>
   <tile gid="7"/>
   <tile gid="7"/>
   <tile gid="7"/>
   <tile gid="7"/>
   <tile gid="7"/>
   <tile gid="7"/>
   <tile gid="7"/>
   <tile gid="7"/>
   <tile gid="7"/>
   <tile gid="7"/>
   <tile gid="7"/>
   <tile gid="7"/>
   <tile gid="7"/>
   <tile gid="7"/>
   <tile gid="7"/>
   <tile gid="7"/>
   <tile gid="7"/>
   <tile gid="7"/>
   <tile gid="100"/>
   <tile gid="100"/>
   <tile gid="744"/>
   <tile gid="100"/>
   <tile gid="100"/>
   <tile gid="7"/>
   <tile gid="7"/>
   <tile gid="7"/>
   <tile gid="7"/>
   <tile gid="7"/>
   <tile gid="7"/>
   <tile gid="7"/>
   <tile gid="7"/>
   <tile gid="99"/>
   <tile gid="721"/>
   <tile gid="743"/>
   <tile gid="385"/>
   <tile gid="425"/>
   <tile gid="498"/>
   <tile gid="7"/>
   <tile gid="7"/>
   <tile gid="7"/>
   <tile gid="744"/>
   <tile gid="100"/>
   <tile gid="7"/>
   <tile gid="7"/>
   <tile gid="100"/>
   <tile gid="100"/>
   <tile gid="686"/>
   <tile gid="385"/>
   <tile gid="425"/>
   <tile gid="584"/>
   <tile gid="457"/>
   <tile gid="493"/>
   <tile gid="498"/>
   <tile gid="784"/>
   <tile gid="385"/>
   <tile gid="425"/>
   <tile gid="498"/>
   <tile gid="7"/>
   <tile gid="7"/>
   <tile gid="653"/>
   <tile gid="654"/>
   <tile gid="750"/>
   <tile gid="582"/>
   <tile gid="457"/>
   <tile gid="554"/>
   <tile gid="588"/>
   <tile gid="513"/>
   <tile gid="586"/>
   <tile gid="546"/>
   <tile gid="584"/>
   <tile gid="457"/>
   <tile gid="493"/>
   <tile gid="498"/>
   <tile gid="7"/>
   <tile gid="686"/>
   <tile gid="753"/>
   <tile gid="458"/>
   <tile gid="493"/>
   <tile gid="834"/>
   <tile gid="428"/>
   <tile gid="551"/>
   <tile gid="588"/>
   <tile gid="419"/>
   <tile gid="619"/>
   <tile gid="461"/>
   <tile gid="584"/>
   <tile gid="514"/>
   <tile gid="586"/>
   <tile gid="580"/>
   <tile gid="385"/>
   <tile gid="610"/>
   <tile gid="588"/>
   <tile gid="618"/>
   <tile gid="616"/>
   <tile gid="425"/>
   <tile gid="554"/>
   <tile gid="525"/>
   <tile gid="456"/>
   <tile gid="493"/>
   <tile gid="430"/>
   <tile gid="587"/>
   <tile gid="588"/>
   <tile gid="579"/>
   <tile gid="609"/>
  </data>
 </layer>
</map>
